X:39
T:Gubbstt
T:efter Pelle Fors
R:Gubbstt
O:Vikbolandet, stergtland
S:efter Pelle Fors
B:Ltar efter Pelle Fors
Z:Bjrn Ek 2009-01-01
N:Nr 39 i Ltar efter Pelle Fors
M:3/4
L:1/8
K:G
%
|:d>e d2 c2|B>d g2 b2|c'2 e2 e>f|g>b d2 d2   |
d>e d2 c2  |B>d g2 b2|c'2 e2 e>f|g/a/g/f/ g4:|
%
|:c'2 e2 e>f|g>b d2 d2|(3faf df a>f|(3gag d>g a>b|
c'2 e2 e>f|g>b d2 d2|(3faf df a>f|g2 g4:|
%
